build/assets/icons/payme.svg

<svg width="105" height="32" viewBox="0 0 105 32" fill="none" xmlns="http://www.w3.org/2000/svg">
<g clip-path="url(#clip0_436_3825)">
<path d="M29.6471 22.324C29.6471 22.82 29.7706 23.316 30.3882 23.316H33.6C34.2177 23.316 34.3412 22.82 34.3412 22.324V12.528C34.3412 11.908 34.3412 11.288 34.2177 10.792C34.0941 10.296 33.9706 9.8 33.8471 9.428C33.7235 9.056 33.4765 8.684 33.2294 8.436C32.9824 8.188 32.6118 7.94 32.3647 7.692C31.9941 7.444 31.6235 7.32 31.2529 7.072C30.8824 6.948 30.3882 6.824 30.0177 6.7C29.5235 6.576 29.0294 6.576 28.5353 6.452C28.0412 6.452 27.4235 6.452 26.6824 6.452C22.2353 6.452 19.7647 7.816 19.1471 10.544C19.1471 10.668 19.1471 10.792 19.1471 10.916C19.1471 11.04 19.1471 11.164 19.2706 11.164C19.3941 11.288 19.3941 11.288 19.5177 11.412C19.6412 11.412 19.7647 11.536 19.8882 11.536H22.6059C23.3471 11.536 23.3471 11.288 23.5941 10.668C23.7177 10.296 23.9647 10.048 24.2118 9.8C24.7059 9.304 25.4471 9.18 26.4353 9.18C27.4235 9.18 28.1647 9.428 28.6588 9.8C29.1529 10.172 29.4 10.792 29.4 11.536C29.4 12.404 29.1529 13.024 28.0412 13.024C25.3235 12.9 22.4824 13.272 20.8765 14.14C19.2706 15.008 18.2824 16.868 18.2824 18.852C18.2824 19.596 18.4059 20.34 18.7765 20.96C19.0235 21.58 19.5177 22.076 20.0118 22.448C20.5059 22.82 21.1235 23.192 21.8647 23.316C22.6059 23.564 23.3471 23.688 24.2118 23.564C25.3235 23.564 26.3118 23.44 27.3 23.192C28.1647 22.944 29.6471 21.952 29.7706 21.828L29.6471 22.324ZM29.5235 18.852C29.5235 18.852 28.6588 20.588 25.8177 20.588C25.0765 20.588 24.4588 20.464 23.8412 20.092C23.3471 19.72 23.1 19.224 23.1 18.356C23.1 17.364 23.4706 16.62 24.3353 16.248C25.2 15.876 26.8059 15.628 28.0412 15.628C29.2765 15.628 29.6471 16.372 29.6471 16.992C29.5235 17.116 29.5235 18.852 29.5235 18.852ZM1.11177 23.192H4.32354C5.18824 23.192 5.06471 22.2 5.06471 22.2V19.472C2.71765 18.604 1.2353 17.488 0.123535 16.372V22.076C0.247065 22.324 0.123535 23.192 1.11177 23.192ZM17.9118 7.444C17.9118 6.7 17.7882 6.08 17.6647 5.336C17.5412 4.716 17.1706 3.972 16.8 3.476C16.4294 2.856 15.9353 2.36 15.4412 1.988C14.9471 1.616 14.3294 1.244 13.7118 1.12C13.0941 0.872 12.3529 0.624 11.6118 0.624C10.7471 0.5 10.0059 0.5 9.01765 0.5H1.60589C0.988241 0.5 0.247065 0.872 0.247065 1.74V13.644C1.2353 15.628 2.96471 17.736 5.06471 18.728V16.372C5.06471 15.132 6.05295 14.884 6.42353 14.884H8.64706C11.7353 14.884 13.9588 14.264 15.5647 13.024C17.1706 11.784 17.9118 9.924 17.9118 7.444ZM12.6 9.552C12.3529 9.924 11.9824 10.296 11.4882 10.544C10.9941 10.792 10.3765 10.916 9.88236 10.916C9.26471 10.916 8.64706 11.04 8.02942 11.04H5.92942C5.4353 11.04 5.06471 10.668 5.06471 10.048V5.212C5.06471 5.088 5.06471 4.964 5.06471 4.964C5.06471 4.84 5.18824 4.716 5.18824 4.716C5.31177 4.592 5.31177 4.592 5.4353 4.592C5.55883 4.592 5.68236 4.592 5.68236 4.592H7.78236C8.52354 4.592 9.14118 4.592 9.75883 4.592C10.2529 4.592 10.8706 4.716 11.3647 4.964C11.8588 5.212 12.2294 5.46 12.3529 5.956C12.6 6.328 12.7235 6.948 12.7235 7.816C12.9706 8.312 12.8471 8.932 12.6 9.552ZM38.1706 26.044C37.9235 26.044 37.6765 26.044 37.4294 26.044C37.1824 26.044 36.5647 26.044 36.5647 26.54V28.772C36.5647 29.64 36.9353 29.64 37.1824 29.764C37.8 29.888 38.5412 30.012 39.2824 30.012C40.1471 30.012 40.8882 29.888 41.6294 29.516C42.3706 29.144 42.9882 28.772 43.4824 28.152C43.9765 27.532 44.4706 26.788 44.8412 26.044C45.2118 25.176 45.5824 24.308 45.9529 23.316C45.9529 23.316 46.0765 22.944 46.4471 22.2C45.7059 22.82 41.8765 26.416 38.1706 26.044ZM51.0177 6.824H48.1765C47.9294 6.824 47.6824 6.948 47.4353 7.072C47.1882 7.196 47.0647 7.444 46.9412 7.692C46.6941 8.312 43.6059 16.868 43.6059 16.868C43.6059 16.868 40.6412 8.56 40.3941 7.94C40.1471 7.32 39.7765 6.824 39.0353 6.824H36.3176C35.3294 6.824 35.3294 7.568 35.4529 7.816C35.5765 8.064 39.1588 17.984 40.6412 21.828C41.0118 22.696 41.1353 22.944 41.1353 23.316C41.1353 23.688 40.7647 24.308 40.5177 24.804C40.3941 24.928 40.2706 25.176 40.1471 25.3C42.8647 24.432 46.0765 21.58 47.6824 18.356C49.2882 13.892 51.3882 8.064 51.5118 7.692C51.7588 7.196 51.7588 6.824 51.0177 6.824Z" fill="#232225"/>
<path d="M88.8177 10.42C87.0883 10.42 85.9766 11.536 85.7295 13.52H91.7824C91.6589 11.784 90.6707 10.42 88.8177 10.42Z" fill="#33CCCC"/>
<path d="M101.541 13.52C100.924 12.776 97.0942 7.81601 95.7354 6.45201C94.1295 4.84001 92.7707 4.09601 91.2883 4.09601H58.6766C55.7119 4.09601 54.7236 5.08801 54.7236 8.43601V21.952C54.7236 25.3 54.9707 26.788 59.2942 26.788H91.2883C92.7707 26.788 94.3766 25.548 95.4883 24.308C96.8472 22.944 100.924 18.604 101.541 17.488C101.912 16.868 102.035 16.248 102.035 15.504C102.159 14.76 101.912 14.016 101.541 13.52ZM57.6883 8.80801C57.6883 8.31201 57.8119 7.94001 58.4295 7.94001H61.1472C61.8883 7.94001 61.8883 8.31201 61.8883 8.80801V8.93201C60.5295 9.67601 59.0472 10.42 57.6883 12.28V8.80801ZM79.0589 22.324H76.2178C75.4766 22.324 75.6001 21.704 75.6001 21.456V13.148C75.6001 12.156 75.4766 11.536 75.2295 11.164C75.106 10.916 74.8589 10.792 74.6119 10.668C74.3648 10.544 74.1178 10.544 73.8707 10.544C72.3883 10.544 71.4001 12.032 70.906 12.652V21.58C70.906 21.828 71.0295 22.324 70.1648 22.324H67.4472C66.706 22.324 66.8295 21.704 66.8295 21.456V13.148C66.8295 12.156 66.706 11.536 66.4589 11.164C66.2119 10.792 65.7178 10.544 65.1001 10.544C63.4942 10.544 62.6295 12.032 62.1354 12.652V21.58C62.1354 21.828 62.2589 22.324 61.3942 22.324H58.553C57.8119 22.324 57.9354 21.704 57.9354 21.456V16C57.9354 12.404 62.3825 8.93201 62.6295 8.68401C63.7413 7.81601 65.1001 7.44401 66.4589 7.44401C67.4472 7.44401 68.3119 7.56801 69.1766 8.06401C69.9178 8.56001 70.4119 9.18001 70.7825 10.048C71.4001 9.30401 72.1413 8.68401 73.006 8.18801C73.7472 7.69201 74.6119 7.56801 75.4766 7.56801C78.6883 7.56801 80.1707 9.30401 80.1707 12.9V21.58C79.8001 21.828 79.9236 22.324 79.0589 22.324ZM94.7472 16H85.7295C85.7295 18.356 86.9648 19.596 88.9413 19.596C90.1766 19.596 90.9177 19.1 91.5354 17.984C91.6589 17.86 91.7825 17.736 91.906 17.612C92.0295 17.488 92.2766 17.488 92.4001 17.488H94.7472C94.8707 17.488 94.8707 17.488 94.9942 17.488C95.1178 17.488 95.1178 17.612 95.1178 17.612L95.2413 17.736C95.2413 17.86 95.2413 17.86 95.2413 17.984C94.253 20.588 91.906 22.076 88.9413 22.076C84.6178 22.076 81.9001 19.224 81.9001 14.884C81.9001 10.668 84.8648 7.56801 88.8178 7.56801C92.8942 7.56801 95.4883 10.296 95.6119 14.76C95.6119 15.38 95.4883 16 94.7472 16Z" fill="#33CCCC"/>
</g>
<defs>
<clipPath id="clip0_436_3825">
<rect width="105" height="31" fill="white" transform="translate(0 0.5)"/>
</clipPath>
</defs>
</svg>

<svg width="105" height="32" fill="none" xmlns="http://www.w3.org/2000/svg"><g clip-path="url(#clip0_436_3825)"><path d="M29.647 22.324c0 .496.124.992.741.992H33.6c.618 0 .741-.496.741-.992v-9.796c0-.62 0-1.24-.123-1.736-.124-.496-.247-.992-.37-1.364a2.702 2.702 0 00-.619-.992c-.247-.248-.617-.496-.864-.744-.37-.248-.742-.372-1.112-.62-.37-.124-.865-.248-1.235-.372-.495-.124-.989-.124-1.483-.248h-1.853c-4.447 0-6.917 1.364-7.535 4.092v.372c0 .124 0 .248.124.248l.247.248c.123 0 .247.124.37.124h2.718c.741 0 .741-.248.988-.868.124-.372.37-.62.618-.868.494-.496 1.235-.62 2.223-.62.989 0 1.73.248 2.224.62.494.372.741.992.741 1.736 0 .868-.247 1.488-1.359 1.488-2.718-.124-5.559.248-7.165 1.116-1.605.868-2.594 2.728-2.594 4.712 0 .744.124 1.488.494 2.108.247.62.742 1.116 1.236 1.488.494.372 1.111.744 1.853.868.74.248 1.482.372 2.347.248a12.4 12.4 0 003.088-.372c.865-.248 2.347-1.24 2.47-1.364l-.123.496zm-.123-3.472s-.865 1.736-3.706 1.736c-.742 0-1.36-.124-1.977-.496-.494-.372-.741-.868-.741-1.736 0-.992.37-1.736 1.235-2.108.865-.372 2.47-.62 3.706-.62 1.235 0 1.606.744 1.606 1.364-.123.124-.123 1.86-.123 1.86zm-28.412 4.34h3.212c.864 0 .74-.992.74-.992v-2.728c-2.346-.868-3.829-1.984-4.94-3.1v5.704c.123.248 0 1.116.988 1.116zm16.8-15.748c0-.744-.124-1.364-.247-2.108-.124-.62-.494-1.364-.865-1.86a5.279 5.279 0 00-1.359-1.488c-.494-.372-1.112-.744-1.73-.868-.617-.248-1.358-.496-2.1-.496C10.748.5 10.007.5 9.019.5H1.606C.988.5.247.872.247 1.74v11.904c.988 1.984 2.718 4.092 4.818 5.084v-2.356c0-1.24.988-1.488 1.359-1.488h2.223c3.088 0 5.312-.62 6.918-1.86 1.606-1.24 2.347-3.1 2.347-5.58zM12.6 9.552a2.92 2.92 0 01-1.112.992 3.792 3.792 0 01-1.606.372c-.617 0-1.235.124-1.853.124h-2.1c-.494 0-.864-.372-.864-.992V4.964c0-.124.123-.248.123-.248.124-.124.124-.124.247-.124H9.76c.494 0 1.112.124 1.606.372s.864.496.988.992c.247.372.37.992.37 1.86.248.496.124 1.116-.123 1.736zm25.57 16.492h-.74c-.248 0-.865 0-.865.496v2.232c0 .868.37.868.617.992.618.124 1.36.248 2.1.248.865 0 1.606-.124 2.347-.496.742-.372 1.36-.744 1.853-1.364.495-.62.989-1.364 1.36-2.108.37-.868.74-1.736 1.11-2.728 0 0 .125-.372.495-1.116-.741.62-4.57 4.216-8.276 3.844zm12.848-19.22h-2.842c-.247 0-.494.124-.74.248-.248.124-.371.372-.495.62-.247.62-3.335 9.176-3.335 9.176S40.64 8.56 40.394 7.94c-.247-.62-.617-1.116-1.359-1.116h-2.717c-.989 0-.989.744-.865.992.123.248 3.706 10.168 5.188 14.012.37.868.494 1.116.494 1.488 0 .372-.37.992-.617 1.488-.124.124-.247.372-.37.496 2.717-.868 5.928-3.72 7.534-6.944 1.606-4.464 3.706-10.292 3.83-10.664.247-.496.247-.868-.494-.868z" fill="#232225"/><path d="M88.818 10.42c-1.73 0-2.841 1.116-3.088 3.1h6.052c-.123-1.736-1.111-3.1-2.964-3.1z" fill="#3CC"/><path d="M101.541 13.52c-.617-.744-4.447-5.704-5.806-7.068-1.606-1.612-2.964-2.356-4.447-2.356H58.677c-2.965 0-3.953.992-3.953 4.34v13.516c0 3.348.247 4.836 4.57 4.836h31.994c1.483 0 3.089-1.24 4.2-2.48 1.36-1.364 5.436-5.704 6.053-6.82.371-.62.494-1.24.494-1.984.124-.744-.123-1.488-.494-1.984zM57.688 8.808c0-.496.124-.868.741-.868h2.718c.741 0 .741.372.741.868v.124c-1.358.744-2.84 1.488-4.2 3.348V8.808zm21.37 13.516h-2.84c-.741 0-.618-.62-.618-.868v-8.308c0-.992-.123-1.612-.37-1.984-.124-.248-.371-.372-.618-.496s-.494-.124-.741-.124c-1.483 0-2.47 1.488-2.965 2.108v8.928c0 .248.123.744-.741.744h-2.718c-.741 0-.618-.62-.618-.868v-8.308c0-.992-.123-1.612-.37-1.984-.247-.372-.741-.62-1.359-.62-1.606 0-2.47 1.488-2.965 2.108v8.928c0 .248.124.744-.74.744h-2.842c-.741 0-.618-.62-.618-.868V16c0-3.596 4.447-7.068 4.694-7.316 1.112-.868 2.471-1.24 3.83-1.24.988 0 1.853.124 2.718.62.74.496 1.235 1.116 1.605 1.984a8.097 8.097 0 012.224-1.86c.741-.496 1.606-.62 2.47-.62 3.212 0 4.695 1.736 4.695 5.332v8.68c-.37.248-.247.744-1.112.744zM94.749 16H85.73c0 2.356 1.236 3.596 3.212 3.596 1.236 0 1.977-.496 2.594-1.612l.371-.372c.123-.124.37-.124.494-.124h2.594c.124 0 .124.124.124.124l.123.124v.248c-.988 2.604-3.335 4.092-6.3 4.092-4.323 0-7.04-2.852-7.04-7.192 0-4.216 2.964-7.316 6.917-7.316 4.076 0 6.67 2.728 6.794 7.192 0 .62-.124 1.24-.865 1.24z" fill="#3CC"/></g><defs><clipPath id="clip0_436_3825"><path fill="#fff" transform="translate(0 .5)" d="M0 0h105v31H0z"/></clipPath></defs></svg>
